!!!ONB: MCCC : ILB0181_01 : Extracted Monophonic Melody
!!!COM: Beethoven, Ludwig van
!!!OPR: Piano Sonata No.20
!!!OMV: 1
!!!SCT: Op.49 No.2
!!!ODT: 1795///
**kern
*thru
*staff1
*Ipiano
*>A
*clefG2
*k[f#]
*G:
*M2/2
*MM120
=1
2g
12d
12g
12b
12dd
12cc
12a
=2
4g
4g
4f#
4g
=3
4.a
8a
4.b
8b
=4
4dd
4cc
4b
4r
=5
2gg
12dd
12gg
12bb
12ddd
12ccc
12aa
=6
4gg
4gg
4ff#
4gg
=7
4.aa
8aa
4.bb
8bb
=8
4ddd
4ccc
8bb
8ccc
8ccc#
8ddd
=9
8ddd#
8eee
8r
8eee
8ddd
8ccc
8bb
8aa
=10
8ccc#
8ddd
8r
8ddd
8ccc
8bb
8aa
8gg
=11
8ff#
8ee
8dd
8cc
8b
8a
8g
8f#
=12
4.g
8a
8b
8cc
8cc#
8dd
=13
8dd#
8ee
8r
8ee
8dd
8cc
8b
8a
=14
8dd#
8ee
8r
8ee
8ee
8cc#
8a
8g
=15
4f#
12aa
12ff#
12dd
4cc
12aa
12ff#
12cc
=16
4b
12gg
12dd
12b
4g
12dd
12b
12g
=17
4f#
12aa
12ff#
12dd
4cc
12aa
12ff#
12cc
=18
4b
12gg
12dd
12b
4g
12dd
12b
12g
=19
4d
12dd
12b
12g
4d
12dd
12b
12g
=20
4d
4r
8r
8a
8a
8a
=21
4dd
4cc#
4dd
4ee
=22
8gg
8ff#
4ee
8r
8a
8a
8a
=23
4ee
4dd
4ee
4ff#
=24
8aa
8gg
4ff#
8r
8aa
8gg
8ff#
=25
8ff#
8ee
8ee
8ee
8dd
8aa
8gg
8ff#
=26
8ff#
8ee
8ee
8ee
8dd
8aa
8gg
8ff#
=27
8ff#
8ee
8r
8ee
8ee
8dd
8r
8dd
=28
8dd
8cc#
8b
8a
8g#
8a
8b
8cc#
=29
4dd
4cc#
4dd
4ee
=30
8gg
8ff#
4ee
8r
8a
8a
8a
=31
4ee
4dd
4ee
4ff#
=32
8aa
8gg
4ff#
8r
8aa
8gg
8ff#
=33
8ff#
8ee
8ee
8ee
8dd
8aa
8gg
8ff#
=34
8ff#
8ee
8ee
8ee
8dd
8aa
8gg
8ff#
=35
8ff#
8ee
8gg
8ee
8ee
8dd
8dd
8cc#
=36
12aa
12gg
12ff#
12ee
12dd
12cc#
12b
12a
12g
12f#
12e
12d
=37
4c#
4c#
4c#
4c#
=38
12d
12e
12f#
12g
12a
12b
12cc#
12dd
12ee
12ff#
12gg
12aa
=39
4gg
4gg
4gg
4gg
=40
12aa
12gg
12ff#
12ee
12dd
12cc#
12b
12a
12g
12f#
12e
12d
=41
4c
4c
4c
4c
=42
12B
12e
12g
12b
12g
12e
4d
4e
=43
12d
12e
12f#
12g
12a
12b
12cc#
12dd
12ee
12ff#
12gg
12aa
=44
1bb
=45
4aa
4gg
4ff#
4ee
=46
12aa
12gg
12ff#
12ee
12dd
12cc#
12b
12a
12g
12f#
12e
12d
=47
1b
=48
4a
4g
4f#
4e
=49
4d
12aa
12ff#
12dd
4cc#
12gg
12ee
12cc#
=50
4dd
12a
12f#
12d
4c#
12g
12e
12c#
=51
4d
12g
12e
12c#
4d
12g
12e
12c#
=52
4d
4d
4d
4r
=53
*>A
*M2/2
2g
12d
12g
12b
12dd
12cc
12a
=54
4g
4g
4f#
4g
=55
4.a
8a
4.b
8b
=56
4dd
4cc
4b
4r
=57
2gg
12dd
12gg
12bb
12ddd
12ccc
12aa
=58
4gg
4gg
4ff#
4gg
=59
4.aa
8aa
4.bb
8bb
=60
4ddd
4ccc
8bb
8ccc
8ccc#
8ddd
=61
8ddd#
8eee
8r
8eee
8ddd
8ccc
8bb
8aa
=62
8ccc#
8ddd
8r
8ddd
8ccc
8bb
8aa
8gg
=63
8ff#
8ee
8dd
8cc
8b
8a
8g
8f#
=64
4.g
8a
8b
8cc
8cc#
8dd
=65
8dd#
8ee
8r
8ee
8dd
8cc
8b
8a
=66
8dd#
8ee
8r
8ee
8ee
8cc#
8a
8g
=67
4f#
12aa
12ff#
12dd
4cc
12aa
12ff#
12cc
=68
4b
12gg
12dd
12b
4g
12dd
12b
12g
=69
4f#
12aa
12ff#
12dd
4cc
12aa
12ff#
12cc
=70
4b
12gg
12dd
12b
4g
12dd
12b
12g
=71
4d
12dd
12b
12g
4d
12dd
12b
12g
=72
4d
4r
8r
8a
8a
8a
=73
4dd
4cc#
4dd
4ee
=74
8gg
8ff#
4ee
8r
8a
8a
8a
=75
4ee
4dd
4ee
4ff#
=76
8aa
8gg
4ff#
8r
8aa
8gg
8ff#
=77
8ff#
8ee
8ee
8ee
8dd
8aa
8gg
8ff#
=78
8ff#
8ee
8ee
8ee
8dd
8aa
8gg
8ff#
=79
8ff#
8ee
8r
8ee
8ee
8dd
8r
8dd
=80
8dd
8cc#
8b
8a
8g#
8a
8b
8cc#
=81
4dd
4cc#
4dd
4ee
=82
8gg
8ff#
4ee
8r
8a
8a
8a
=83
4ee
4dd
4ee
4ff#
=84
8aa
8gg
4ff#
8r
8aa
8gg
8ff#
=85
8ff#
8ee
8ee
8ee
8dd
8aa
8gg
8ff#
=86
8ff#
8ee
8ee
8ee
8dd
8aa
8gg
8ff#
=87
8ff#
8ee
8gg
8ee
8ee
8dd
8dd
8cc#
=88
12aa
12gg
12ff#
12ee
12dd
12cc#
12b
12a
12g
12f#
12e
12d
=89
4c#
4c#
4c#
4c#
=90
12d
12e
12f#
12g
12a
12b
12cc#
12dd
12ee
12ff#
12gg
12aa
=91
4gg
4gg
4gg
4gg
=92
12aa
12gg
12ff#
12ee
12dd
12cc#
12b
12a
12g
12f#
12e
12d
=93
4c
4c
4c
4c
=94
12B
12e
12g
12b
12g
12e
4d
4e
=95
12d
12e
12f#
12g
12a
12b
12cc#
12dd
12ee
12ff#
12gg
12aa
=96
1bb
=97
4aa
4gg
4ff#
4ee
=98
12aa
12gg
12ff#
12ee
12dd
12cc#
12b
12a
12g
12f#
12e
12d
=99
1b
=100
4a
4g
4f#
4e
=101
4d
12aa
12ff#
12dd
4cc#
12gg
12ee
12cc#
=102
4dd
12a
12f#
12d
4c#
12g
12e
12c#
=103
4d
12g
12e
12c#
4d
12g
12e
12c#
=104
4d
4d
4d
4r
=105
*>B
2dd[
12dd]
12ff
12ee
12dd
12cc
12b
=106
4a
4g#
4a
4b
=107
4cc
4dd
4ee
4dd
=108
[2aa
12aa]
12ccc
12bb
12aa
12gg
12ff#
=109
4ee
4dd#
4ee
4ff#
=110
4.gg
16ff#
16gg
8aa
8gg
8ff#
8ee
=111
4dd#
8r
8bb
4aa
8r
8ff#
=112
4gg
8r
8gg
4ff#
4gg
=113
4ff#
8r
8bb
4aa
8r
8ff#
=114
4gg
8r
8gg
4ff#
4gg
=115
4ff#
4r
2r
=116
4gg
4r
2r
=117
8ccc
8bb
8ccc
8bb
8ccc
8bb
8aa
8gg
=118
8ff#
8ee
8dd
8cc
8b
8a
8g
8f#
=119
2g
12d
12g
12b
12dd
12cc
12a
=120
4g
4g
4f#
4g
=121
4.a
8a
4.b
8b
=122
4dd
4cc
4b
4r
=123
2gg
12dd
12gg
12bb
12ddd
12ccc
12aa
=124
4gg
4gg
4ff#
4gg
=125
4aa
8r
8aa
4bb
8r
8bb
=126
8ccc
8gg
8aa
8ff
8ee
8gg
8ff
8dd
=127
12gg
12ff
12ee
12dd
12cc
12b
12a
12g
12f
12e
12d
12c
=128
4B
4B
4B
4B
=129
12c
12d
12e
12f
12g
12a
12b
12cc
12dd
12ee
12ff
12gg
=130
4ff
4ff
4ff
4ff
=131
12ee
12dd
12cc
12b
12a
12g
12f
12e
12d
12c
12B
12A
=132
4G#
4G#
4G#
4G#
=133
4A
2a
4g
=134
4f#
12aa
12ff#
12dd
4cc
12aa
12ff#
12cc
=135
4b
12gg
12dd
12b
4g
12dd
12b
12g
=136
4f#
12aa
12ff#
12dd
4cc
12aa
12ff#
12cc
=137
4b
12gg
12dd
12b
4g
12dd
12b
12g
=138
4d
12dd
12b
12g
4d
12dd
12b
12g
=139
4d
4r
8r
8d
8d
8d
=140
4g
4f#
4g
4a
=141
8cc
8b
4a
8r
8d
8d
8d
=142
4a
4g
4a
4b
=143
8dd
8cc
4b
8r
8dd
8cc
8b
=144
8b
8a
8a
8a
8g
8dd
8cc
8b
=145
8b
8a
8a
8a
8g
8dd
8cc
8b
=146
8b
8a
8r
8a
8a
8g
8r
8g
=147
8f#
8g
8a
8b
8cc
8dd
8ee
8ff#
=148
4gg
4ff#
4gg
4aa
=149
8ccc
8bb
4aa
8r
8dd
8dd
8dd
=150
4aa
4gg
4aa
4bb
=151
8ddd
8ccc
4bb
8r
8ddd
8ccc
8bb
=152
8bb
8aa
8aa
8aa
8gg
8ddd
8ccc
8bb
=153
8bb
8aa
8aa
8aa
8gg
8ddd
8ccc
8bb
=154
8bb
8aa
8ccc
8aa
8aa
8gg
8gg
8ff#
=155
12ddd
12ccc
12bb
12aa
12gg
12ff#
12ee
12dd
12cc
12b
12a
12g
=156
4f#
4f#
4f#
4f#
=157
12g
12a
12b
12cc
12dd
12ee
12ff#
12gg
12aa
12bb
12ccc
12ddd
=158
4ccc
4ccc
4ccc
4ccc
=159
12ddd
12ccc
12bb
12aa
12gg
12ff#
12ee
12dd
12cc
12b
12a
12g
=160
4f
4f
4f
4f
=161
12e
12a
12cc
12ee
12cc
12a
4g
4a
=162
12g
12a
12b
12cc
12dd
12ee
12ff#
12gg
12aa
12bb
12ccc
12ddd
=163
1eee
=164
4ddd
4ccc
4bb
4aa
=165
12ddd
12ccc
12bb
12aa
12gg
12ff#
12ee
12dd
12cc
12b
12a
12g
=166
1ee
=167
4dd
4cc
4b
4a
=168
4g
12ddd
12bb
12gg
4ff#
12ccc
12aa
12ff#
=169
4gg
12dd
12b
12g
4f#
12cc
12a
12f#
=170
4g
12ddd
12bb
12gg
4ff#
12ccc
12aa
12ff#
=171
4gg
12dd
12b
12g
4f#
12cc
12a
12f#
=172
4g
12cc
12a
12f#
4g
12cc
12a
12f#
=173
4g
4r
4ff#
4r
=174
4gg
4r
2r
=175
*>B
2dd[
12dd]
12ff
12ee
12dd
12cc
12b
=176
4a
4g#
4a
4b
=177
4cc
4dd
4ee
4dd
=178
[2aa
12aa]
12ccc
12bb
12aa
12gg
12ff#
=179
4ee
4dd#
4ee
4ff#
=180
4.gg
16ff#
16gg
8aa
8gg
8ff#
8ee
=181
4dd#
8r
8bb
4aa
8r
8ff#
=182
4gg
8r
8gg
4ff#
4gg
=183
4ff#
8r
8bb
4aa
8r
8ff#
=184
4gg
8r
8gg
4ff#
4gg
=185
4ff#
4r
2r
=186
4gg
4r
2r
=187
8ccc
8bb
8ccc
8bb
8ccc
8bb
8aa
8gg
=188
8ff#
8ee
8dd
8cc
8b
8a
8g
8f#
=189
2g
12d
12g
12b
12dd
12cc
12a
=190
4g
4g
4f#
4g
=191
4.a
8a
4.b
8b
=192
4dd
4cc
4b
4r
=193
2gg
12dd
12gg
12bb
12ddd
12ccc
12aa
=194
4gg
4gg
4ff#
4gg
=195
4aa
8r
8aa
4bb
8r
8bb
=196
8ccc
8gg
8aa
8ff
8ee
8gg
8ff
8dd
=197
12gg
12ff
12ee
12dd
12cc
12b
12a
12g
12f
12e
12d
12c
=198
4B
4B
4B
4B
=199
12c
12d
12e
12f
12g
12a
12b
12cc
12dd
12ee
12ff
12gg
=200
4ff
4ff
4ff
4ff
=201
12ee
12dd
12cc
12b
12a
12g
12f
12e
12d
12c
12B
12A
=202
4G#
4G#
4G#
4G#
=203
4A
2a
4g
=204
4f#
12aa
12ff#
12dd
4cc
12aa
12ff#
12cc
=205
4b
12gg
12dd
12b
4g
12dd
12b
12g
=206
4f#
12aa
12ff#
12dd
4cc
12aa
12ff#
12cc
=207
4b
12gg
12dd
12b
4g
12dd
12b
12g
=208
4d
12dd
12b
12g
4d
12dd
12b
12g
=209
4d
4r
8r
8d
8d
8d
=210
4g
4f#
4g
4a
=211
8cc
8b
4a
8r
8d
8d
8d
=212
4a
4g
4a
4b
=213
8dd
8cc
4b
8r
8dd
8cc
8b
=214
8b
8a
8a
8a
8g
8dd
8cc
8b
=215
8b
8a
8a
8a
8g
8dd
8cc
8b
=216
8b
8a
8r
8a
8a
8g
8r
8g
=217
8f#
8g
8a
8b
8cc
8dd
8ee
8ff#
=218
4gg
4ff#
4gg
4aa
=219
8ccc
8bb
4aa
8r
8dd
8dd
8dd
=220
4aa
4gg
4aa
4bb
=221
8ddd
8ccc
4bb
8r
8ddd
8ccc
8bb
=222
8bb
8aa
8aa
8aa
8gg
8ddd
8ccc
8bb
=223
8bb
8aa
8aa
8aa
8gg
8ddd
8ccc
8bb
=224
8bb
8aa
8ccc
8aa
8aa
8gg
8gg
8ff#
=225
12ddd
12ccc
12bb
12aa
12gg
12ff#
12ee
12dd
12cc
12b
12a
12g
=226
4f#
4f#
4f#
4f#
=227
12g
12a
12b
12cc
12dd
12ee
12ff#
12gg
12aa
12bb
12ccc
12ddd
=228
4ccc
4ccc
4ccc
4ccc
=229
12ddd
12ccc
12bb
12aa
12gg
12ff#
12ee
12dd
12cc
12b
12a
12g
=230
4f
4f
4f
4f
=231
12e
12a
12cc
12ee
12cc
12a
4g
4a
=232
12g
12a
12b
12cc
12dd
12ee
12ff#
12gg
12aa
12bb
12ccc
12ddd
=233
1eee
=234
4ddd
4ccc
4bb
4aa
=235
12ddd
12ccc
12bb
12aa
12gg
12ff#
12ee
12dd
12cc
12b
12a
12g
=236
1ee
=237
4dd
4cc
4b
4a
=238
4g
12ddd
12bb
12gg
4ff#
12ccc
12aa
12ff#
=239
4gg
12dd
12b
12g
4f#
12cc
12a
12f#
=240
4g
12ddd
12bb
12gg
4ff#
12ccc
12aa
12ff#
=241
4gg
12dd
12b
12g
4f#
12cc
12a
12f#
=242
4g
12cc
12a
12f#
4g
12cc
12a
12f#
=243
4g
4r
4ff#
4r
=244
4gg
4r
2r
==
*-
